X:1
T: Hon. Mrs. Fraser
C:
R:Reel
Q: 232
K:Bm
M:4/4
L:1/8
|:g|f2 ef df Fd|cA ec ae cA|f2 ef df Bd|ef dc dB Bg|
f2 ef df Fd|cA ec ae cA|Bc dB cd eg|fd ec dB Bf|
b2 fd b2 fd|ce a^g ae cA|b2 fd b2 fd|eg dc dB Bf|
b2 fd b2 fd|ce a^g ae cA|Bb ^ab gb eg|fe dc dB B:|
